localPackages/DesignSystem/Sources/DesignSystem/Resources/Assets.xcassets/IconSet/ic-note.imageset/ic-note.svg

<svg width="24" height="24" viewBox="0 0 24 24" fill="none" xmlns="http://www.w3.org/2000/svg">
<g id="ic-note">
<path id="Icon" fill-rule="evenodd" clip-rule="evenodd" d="M4.5 18C4.5 18.8284 5.17157 19.5 6 19.5L13.5 19.5L13.5 15.75C13.5 14.5074 14.5074 13.5 15.75 13.5H19.5L19.5 6C19.5 5.17157 18.8284 4.5 18 4.5L6 4.5C5.17157 4.5 4.5 5.17157 4.5 6L4.5 18ZM19.1257 15H15.75C15.3358 15 15 15.3358 15 15.75V19.1257C15.1244 19.0433 15.2412 18.9481 15.3483 18.841L18.841 15.3483C18.9481 15.2412 19.0433 15.1244 19.1257 15ZM6 21C4.34315 21 3 19.6569 3 18V6C3 4.34315 4.34315 3 6 3H18C19.6569 3 21 4.34315 21 6L21 13.7574C21 14.7519 20.6049 15.7057 19.9016 16.409L16.409 19.9017C15.7057 20.6049 14.7519 21 13.7574 21H6Z" fill="#0F0F0F"/>
</g>
</svg>

<svg xmlns="http://www.w3.org/2000/svg" width="24" height="24" viewBox="0 0 24 24">
  <g class="ic-note">
    <path fill-rule="evenodd" d="M4.5 18A1.5 1.5 0 0 0 6 19.5h7.5v-3.75a2.25 2.25 0 0 1 2.25-2.25h3.75V6A1.5 1.5 0 0 0 18 4.5H6A1.5 1.5 0 0 0 4.5 6v12Zm14.626-3H15.75a.75.75 0 0 0-.75.75v3.376c.124-.083.241-.178.348-.285l3.493-3.493c.107-.107.202-.224.285-.348ZM6 21a3 3 0 0 1-3-3V6a3 3 0 0 1 3-3h12a3 3 0 0 1 3 3v7.757a3.75 3.75 0 0 1-1.098 2.652l-3.493 3.493A3.75 3.75 0 0 1 13.757 21H6Z" class="Icon"/>
  </g>
</svg>
